X: 1
T: John Dwyer's
M: 6/8
L: 1/8
R: jig
K: Dmaj
|: dAA BAA | dAA BAF | dAA ~f3 | edB dBA |
   dAA BAA | def edB | gfe fed |1~B3 B2c :|2 ~B3 B2e ||
|: fgg gfe | fed dBA | Bbb Baa | Bgg Bff |
   Bgg gfe | fed dBA | gfe fed |1~B3 B2e :|2 ~B3 B2A ||
